X:42
T:Moving Bog, The
R:reel
Z:Transcribed by Dave Marshall
M:C|
K:G
| B~G3 GBAF | D2FD ADGF | D~G3 GABc | dfe^c dB=cA |
B~G3 GBAF | D2FD ADGF | D~G3 GABc | dfe^c d2B=c |
d~g3 gage | f~d3 fdcA | d~g3 bgag | fgaf g2ge |
defg a2ga | f~d3 defg | afge fde^c | d2eg fdcA |
